X:258
T:Apples in Winter
O:england
C:Trad
S:O'Neill's
I:speed 280
M:6/8
K:G
M:6/8l
|:dc |
M:6/8
BEE dEE | BAG FGE | DED FDF | AB^c ddd |
BEE BAB | def gfe | fdB AGF | GEE E2:|
|:B | efe edB |\
M:6/8l
efg2e2 f2d2B2 |\
M:6/8
ded dAF | DFA dBA |
[1 efe edB | def g2a | bgb afa | gee e2 :|
[2edB def | gba ggg | fdB AGF | GEE E2|


